packages/icons/src/components/Icon/assets/small-solid/folder.svg

<svg width="16" height="16" viewBox="0 0 16 16" fill="none" xmlns="http://www.w3.org/2000/svg">
<path d="M2 3.5C2 2.67157 2.67157 2 3.5 2H6.37868C6.7765 2 7.15804 2.15804 7.43934 2.43934L8.56066 3.56066C8.84196 3.84197 9.2235 4 9.62132 4H12.5C13.3284 4 14 4.67157 14 5.5V6.90135C13.5587 6.64609 13.0464 6.5 12.5 6.5H3.5C2.95357 6.5 2.44126 6.64609 2 6.90135V3.5Z" fill="black"/>
<path d="M2 9.5V12.5C2 13.3284 2.67157 14 3.5 14H12.5C13.3284 14 14 13.3284 14 12.5V9.5C14 8.67157 13.3284 8 12.5 8H3.5C2.67157 8 2 8.67157 2 9.5Z" fill="black"/>
</svg>

<svg xmlns="http://www.w3.org/2000/svg" width="16" height="16" fill="none" viewBox="0 0 16 16">
    <path fill="#000" d="M2 3.5A1.5 1.5 0 0 1 3.5 2h2.879a1.5 1.5 0 0 1 1.06.44l1.122 1.12A1.5 1.5 0 0 0 9.62 4h2.88A1.5 1.5 0 0 1 14 5.5v1.401a3 3 0 0 0-1.5-.401h-9c-.546 0-1.059.146-1.5.401zm0 6v3A1.5 1.5 0 0 0 3.5 14h9a1.5 1.5 0 0 0 1.5-1.5v-3A1.5 1.5 0 0 0 12.5 8h-9A1.5 1.5 0 0 0 2 9.5"/>
</svg>
